X: 21362
T: Kerry Jig, The
R: slide
M: 12/8
K: Adorian
|:A3 AGE|ABA AGE|G3 GBA|GED DE/F/G|
ABA ABc|dBA G3|GBd dBG|1 c3 B3:|2 (c3 c2)d||
|:e3 e2 d|cde g2 z|GBA G2 A|GED DE/F/G|
ABA ABc|dBA G3|GBd dBG|1 (c3 c2)d:|2 c3 B3||

